X:644
T: O UELI MYN UELI
N: E0592
O: Europa, Mitteleuropa, Schweiz
R: Liebes - Lied, Kilt - Lied
M: 3/4
L: 1/8
K: Bb
F2 | B3dcB | A2F2
B2 | d2Bdfd | c4
F2 | B3dcB | A2F2
B2 | d2Bdfd | c4
de | f2d2fd | e2c2
de | f2d2fd | e2c2
eg | f3dec | B4

@@@ Tune index: 4294
